icons/file/icon_format-rar_l_white.svg

<svg xmlns="http://www.w3.org/2000/svg" width="30" height="30" viewBox="0 0 30 30" fill="none"><rect width="30" height="30" fill="none"/>
<path fill-rule="evenodd" clip-rule="evenodd" d="M19 28H6C4.96133 27.9987 3.96378 27.594 3.21785 26.8712C2.47192 26.1484 2.03597 25.1641 2.002 24.126H2V8.293L8.293 2H19C21.206 2 23 3.794 23 6V11H22V6C22 4.346 20.654 3 19 3H8.707L3 8.707V24C3 25.654 4.346 27 6 27H19C20.654 27 22 25.654 22 24H23C23 26.206 21.206 28 19 28Z" fill="white"/>
<path d="M10.7508 18.133H8.7418V21.009H7.7998V13.9H10.4918C11.2928 13.9 11.9078 14.083 12.3378 14.448C12.7708 14.812 12.9878 15.343 12.9878 16.04C12.9967 16.4548 12.8696 16.8612 12.6258 17.197C12.3888 17.526 12.0558 17.771 11.6298 17.934L13.2998 20.952V21.01H12.2938L10.7508 18.134V18.133ZM8.7418 17.367H10.5218C10.9868 17.367 11.3568 17.247 11.6298 17.005C11.9068 16.765 12.0448 16.442 12.0448 16.039C12.0448 15.599 11.9128 15.262 11.6498 15.028C11.3898 14.793 11.0118 14.675 10.5168 14.671H8.7418V17.367V17.367ZM19.3428 19.154H16.3638L15.6948 21.009H14.7288L17.4428 13.899H18.2628L20.9828 21.009H20.0208L19.3428 19.154ZM16.6478 18.382H19.0638L17.8538 15.057L16.6478 18.382ZM25.4388 18.133H23.3778V21.009H22.4348V13.9H25.1798C25.9798 13.9 26.5958 14.083 27.0258 14.448C27.4588 14.812 27.6748 15.343 27.6748 16.04C27.6748 16.482 27.5548 16.868 27.3138 17.197C27.0758 17.526 26.7438 17.771 26.3178 17.934L27.9878 20.952V21.01H26.9818L25.4388 18.134V18.133ZM23.3778 17.367H25.2088C25.6748 17.367 26.0438 17.247 26.3178 17.005C26.5938 16.765 26.7328 16.442 26.7328 16.039C26.7328 15.599 26.6008 15.262 26.3368 15.028C26.0768 14.793 25.6988 14.675 25.2038 14.671H23.3778V17.367V17.367Z" fill="white" fill-opacity="0.9"/>
</svg>

<svg width="30" height="30" viewBox="0 0 30 30" fill="none" xmlns="http://www.w3.org/2000/svg"><path d="M0 0h30v30H0z"/><path fill-rule="evenodd" clip-rule="evenodd" d="M19 28H6a4.005 4.005 0 01-3.998-3.874H2V8.293L8.293 2H19c2.206 0 4 1.794 4 4v5h-1V6c0-1.654-1.346-3-3-3H8.707L3 8.707V24c0 1.654 1.346 3 3 3h13c1.654 0 3-1.346 3-3h1c0 2.206-1.794 4-4 4z" fill="#fff"/><path d="M10.751 18.133H8.742v2.876H7.8V13.9h2.692c.801 0 1.416.183 1.846.548.433.364.65.895.65 1.592a1.9 1.9 0 01-.362 1.157c-.237.329-.57.574-.996.737l1.67 3.018v.058h-1.006l-1.543-2.876zm-2.009-.766h1.78c.465 0 .835-.12 1.108-.362.277-.24.415-.563.415-.966 0-.44-.132-.777-.395-1.011-.26-.235-.638-.353-1.133-.357H8.742v2.696zm10.601 1.787h-2.979l-.669 1.855h-.966l2.714-7.11h.82l2.72 7.11h-.962l-.678-1.855zm-2.695-.772h2.416l-1.21-3.325-1.206 3.325zm8.791-.249h-2.061v2.876h-.943V13.9h2.745c.8 0 1.416.183 1.846.548.433.364.649.895.649 1.592 0 .442-.12.828-.361 1.157-.238.329-.57.574-.996.737l1.67 3.018v.058h-1.006l-1.543-2.876zm-2.061-.766h1.831c.466 0 .835-.12 1.109-.362.276-.24.415-.563.415-.966 0-.44-.132-.777-.396-1.011-.26-.235-.638-.353-1.133-.357h-1.826v2.696z" fill="#fff" fill-opacity=".9"/></svg>
